X: 29924
T: O'Sullivan's March
R: jig
M: 6/8
K: Dmajor
|:"D" E>FE EFA|BAF E2 A,|"G/D" D>FE FFE|"D"F2 D D2 A,|
"D" D>FE EFA|BAF E2 A,|"G/D"D>FE FFE|"D"F2 D D2 A,:|
|:"G/D" B2 G B2 d|B>dB B>AF|"D" A3 A3|A>dA AFD|
"G/D" G2 A B2 G|"D" (B/c/)dD {F}E2 A,|"G/D" D>FE FFE|1 "DM7" F>DD
"Em/D" D2 d|2 "DM7" F>D"Em/D"D D2 A,||

